static/img/kroki/a60f8dfc06d7f926d54edddfeeeb272f.svg

<?xml version="1.0" encoding="us-ascii" standalone="no"?><svg xmlns="http://www.w3.org/2000/svg" xmlns:xlink="http://www.w3.org/1999/xlink" contentStyleType="text/css" height="1085px" preserveAspectRatio="none" style="width:506px;height:1085px;" version="1.1" viewBox="0 0 506 1085" width="506px" zoomAndPan="magnify"><defs/><g><!--class gcp_deprecation_status--><g id="elem_gcp_deprecation_status"><rect codeLine="22" fill="#3D176E" height="179.2734" id="gcp_deprecation_status" rx="2.5" ry="2.5" style="stroke:#000D19;stroke-width:0.5;" width="237" x="128.5" y="899.42"/><ellipse cx="143.5" cy="919.3145" fill="#ADD1B2" rx="11" ry="11" style="stroke:#181818;stroke-width:1.0;"/><path d="M146.4688,924.9552 Q145.8906,925.252 145.25,925.3927 Q144.6094,925.5489 143.9063,925.5489 Q141.4063,925.5489 140.0781,923.9083 Q138.7656,922.252 138.7656,919.127 Q138.7656,916.002 140.0781,914.3458 Q141.4063,912.6895 143.9063,912.6895 Q144.6094,912.6895 145.25,912.8458 Q145.9063,913.002 146.4688,913.2989 L146.4688,916.0177 Q145.8438,915.4395 145.25,915.1739 Q144.6563,914.8927 144.0313,914.8927 Q142.6875,914.8927 142,915.9708 Q141.3125,917.0333 141.3125,919.127 Q141.3125,921.2208 142,922.2989 Q142.6875,923.3614 144.0313,923.3614 Q144.6563,923.3614 145.25,923.0958 Q145.8438,922.8145 146.4688,922.2364 L146.4688,924.9552 Z " fill="#000000"/><text fill="#D9B8FF" font-family="Helvetica" font-size="17" lengthAdjust="spacing" textLength="195" x="162.5" y="925.1998">gcp_deprecation_status</text><line style="stroke:#000D19;stroke-width:0.5;" x1="129.5" x2="364.5" y1="939.2091" y2="939.2091"/><text fill="#D9B8FF" font-family="sans-serif" font-size="14" font-weight="bold" lengthAdjust="spacing" textLength="60" x="139.5" y="961.2042">deleted</text><text fill="#D9B8FF" font-family="sans-serif" font-size="14" lengthAdjust="spacing" textLength="48" x="199.5" y="961.2042">: string</text><text fill="#D9B8FF" font-family="sans-serif" font-size="14" font-weight="bold" lengthAdjust="spacing" textLength="91" x="139.5" y="987.5011">deprecated</text><text fill="#D9B8FF" font-family="sans-serif" font-size="14" lengthAdjust="spacing" textLength="48" x="230.5" y="987.5011">: string</text><text fill="#D9B8FF" font-family="sans-serif" font-size="14" font-weight="bold" lengthAdjust="spacing" textLength="69" x="139.5" y="1013.7979">obsolete</text><text fill="#D9B8FF" font-family="sans-serif" font-size="14" lengthAdjust="spacing" textLength="48" x="208.5" y="1013.7979">: string</text><text fill="#D9B8FF" font-family="sans-serif" font-size="14" font-weight="bold" lengthAdjust="spacing" textLength="99" x="139.5" y="1040.0948">replacement</text><text fill="#D9B8FF" font-family="sans-serif" font-size="14" lengthAdjust="spacing" textLength="48" x="238.5" y="1040.0948">: string</text><text fill="#D9B8FF" font-family="sans-serif" font-size="14" font-weight="bold" lengthAdjust="spacing" textLength="40" x="139.5" y="1066.3917">state</text><text fill="#D9B8FF" font-family="sans-serif" font-size="14" lengthAdjust="spacing" textLength="48" x="179.5" y="1066.3917">: string</text></g><!--class gcp_project_billing_info--><g id="elem_gcp_project_billing_info"><rect codeLine="29" fill="#3D176E" height="126.6797" id="gcp_project_billing_info" rx="2.5" ry="2.5" style="stroke:#000D19;stroke-width:0.5;" width="300" x="199" y="712.74"/><ellipse cx="242.35" cy="732.6345" fill="#ADD1B2" rx="11" ry="11" style="stroke:#181818;stroke-width:1.0;"/><path d="M245.3188,738.2752 Q244.7406,738.572 244.1,738.7127 Q243.4594,738.8689 242.7563,738.8689 Q240.2563,738.8689 238.9281,737.2283 Q237.6156,735.572 237.6156,732.447 Q237.6156,729.322 238.9281,727.6658 Q240.2563,726.0095 242.7563,726.0095 Q243.4594,726.0095 244.1,726.1658 Q244.7563,726.322 245.3188,726.6189 L245.3188,729.3377 Q244.6938,728.7595 244.1,728.4939 Q243.5063,728.2127 242.8813,728.2127 Q241.5375,728.2127 240.85,729.2908 Q240.1625,730.3533 240.1625,732.447 Q240.1625,734.5408 240.85,735.6189 Q241.5375,736.6814 242.8813,736.6814 Q243.5063,736.6814 244.1,736.4158 Q244.6938,736.1345 245.3188,735.5564 L245.3188,738.2752 Z " fill="#000000"/><text fill="#D9B8FF" font-family="Helvetica" font-size="17" lengthAdjust="spacing" textLength="195" x="267.65" y="738.5198">gcp_project_billing_info</text><line style="stroke:#000D19;stroke-width:0.5;" x1="200" x2="498" y1="752.5291" y2="752.5291"/><text fill="#D9B8FF" font-family="sans-serif" font-size="14" font-weight="bold" lengthAdjust="spacing" textLength="166" x="210" y="774.5242">billing_account_name</text><text fill="#D9B8FF" font-family="sans-serif" font-size="14" lengthAdjust="spacing" textLength="48" x="376" y="774.5242">: string</text><text fill="#D9B8FF" font-family="sans-serif" font-size="14" font-weight="bold" lengthAdjust="spacing" textLength="116" x="210" y="800.8211">billing_enabled</text><text fill="#D9B8FF" font-family="sans-serif" font-size="14" lengthAdjust="spacing" textLength="65" x="326" y="800.8211">: boolean</text><text fill="#D9B8FF" font-family="sans-serif" font-size="14" font-weight="bold" lengthAdjust="spacing" textLength="230" x="210" y="827.1179">project_billing_info_project_id</text><text fill="#D9B8FF" font-family="sans-serif" font-size="14" lengthAdjust="spacing" textLength="48" x="440" y="827.1179">: string</text></g><!--class gcp_resource--><g id="elem_gcp_resource"><rect codeLine="34" fill="#3D176E" height="152.9766" id="gcp_resource" rx="2.5" ry="2.5" style="stroke:#000D19;stroke-width:0.5;" width="348" x="7" y="438.76"/><ellipse cx="117.75" cy="458.6545" fill="#ADD1B2" rx="11" ry="11" style="stroke:#181818;stroke-width:1.0;"/><path d="M120.7188,464.2952 Q120.1406,464.592 119.5,464.7327 Q118.8594,464.8889 118.1563,464.8889 Q115.6563,464.8889 114.3281,463.2483 Q113.0156,461.592 113.0156,458.467 Q113.0156,455.342 114.3281,453.6858 Q115.6563,452.0295 118.1563,452.0295 Q118.8594,452.0295 119.5,452.1858 Q120.1563,452.342 120.7188,452.6389 L120.7188,455.3577 Q120.0938,454.7795 119.5,454.5139 Q118.9063,454.2327 118.2813,454.2327 Q116.9375,454.2327 116.25,455.3108 Q115.5625,456.3733 115.5625,458.467 Q115.5625,460.5608 116.25,461.6389 Q116.9375,462.7014 118.2813,462.7014 Q118.9063,462.7014 119.5,462.4358 Q120.0938,462.1545 120.7188,461.5764 L120.7188,464.2952 Z " fill="#000000"/><text fill="#D9B8FF" font-family="Helvetica" font-size="17" lengthAdjust="spacing" textLength="108" x="143.25" y="464.5398">gcp_resource</text><line style="stroke:#000D19;stroke-width:0.5;" x1="8" x2="354" y1="478.5491" y2="478.5491"/><text fill="#D9B8FF" font-family="sans-serif" font-size="14" font-weight="bold" lengthAdjust="spacing" textLength="151" x="18" y="500.5442">deprecation_status</text><text fill="#D9B8FF" font-family="sans-serif" font-size="14" lengthAdjust="spacing" textLength="175" x="169" y="500.5442">: gcp_deprecation_status</text><text fill="#D9B8FF" font-family="sans-serif" font-size="14" font-weight="bold" lengthAdjust="spacing" textLength="89" x="18" y="526.8411">description</text><text fill="#D9B8FF" font-family="sans-serif" font-size="14" lengthAdjust="spacing" textLength="48" x="107" y="526.8411">: string</text><text fill="#D9B8FF" font-family="sans-serif" font-size="14" font-weight="bold" lengthAdjust="spacing" textLength="128" x="18" y="553.1379">label_fingerprint</text><text fill="#D9B8FF" font-family="sans-serif" font-size="14" lengthAdjust="spacing" textLength="48" x="146" y="553.1379">: string</text><text fill="#D9B8FF" font-family="sans-serif" font-size="14" font-weight="bold" lengthAdjust="spacing" textLength="27" x="18" y="579.4348">link</text><text fill="#D9B8FF" font-family="sans-serif" font-size="14" lengthAdjust="spacing" textLength="48" x="45" y="579.4348">: string</text></g><!--class resource--><g id="elem_resource"><rect codeLine="40" fill="#3D176E" height="310.7578" id="resource" rx="2.5" ry="2.5" style="stroke:#000D19;stroke-width:0.5;" width="227" x="67.5" y="7"/><ellipse cx="136.25" cy="26.8945" fill="#ADD1B2" rx="11" ry="11" style="stroke:#181818;stroke-width:1.0;"/><path d="M139.2188,32.5352 Q138.6406,32.832 138,32.9727 Q137.3594,33.1289 136.6563,33.1289 Q134.1563,33.1289 132.8281,31.4883 Q131.5156,29.832 131.5156,26.707 Q131.5156,23.582 132.8281,21.9258 Q134.1563,20.2695 136.6563,20.2695 Q137.3594,20.2695 138,20.4258 Q138.6563,20.582 139.2188,20.8789 L139.2188,23.5977 Q138.5938,23.0195 138,22.7539 Q137.4063,22.4727 136.7813,22.4727 Q135.4375,22.4727 134.75,23.5508 Q134.0625,24.6133 134.0625,26.707 Q134.0625,28.8008 134.75,29.8789 Q135.4375,30.9414 136.7813,30.9414 Q137.4063,30.9414 138,30.6758 Q138.5938,30.3945 139.2188,29.8164 L139.2188,32.5352 Z " fill="#000000"/><text fill="#D9B8FF" font-family="Helvetica" font-size="17" lengthAdjust="spacing" textLength="71" x="161.75" y="32.7798">resource</text><line style="stroke:#000D19;stroke-width:0.5;" x1="68.5" x2="293.5" y1="46.7891" y2="46.7891"/><text fill="#D9B8FF" font-family="sans-serif" font-size="14" font-weight="bold" lengthAdjust="spacing" textLength="29" x="78.5" y="68.7842">age</text><text fill="#D9B8FF" font-family="sans-serif" font-size="14" lengthAdjust="spacing" textLength="66" x="107.5" y="68.7842">: duration</text><text fill="#D9B8FF" font-family="sans-serif" font-size="14" font-weight="bold" lengthAdjust="spacing" textLength="43" x="78.5" y="95.0811">atime</text><text fill="#D9B8FF" font-family="sans-serif" font-size="14" lengthAdjust="spacing" textLength="70" x="121.5" y="95.0811">: datetime</text><text fill="#D9B8FF" font-family="sans-serif" font-size="14" font-weight="bold" lengthAdjust="spacing" textLength="43" x="78.5" y="121.3779">ctime</text><text fill="#D9B8FF" font-family="sans-serif" font-size="14" lengthAdjust="spacing" textLength="70" x="121.5" y="121.3779">: datetime</text><text fill="#D9B8FF" font-family="sans-serif" font-size="14" font-weight="bold" lengthAdjust="spacing" textLength="14" x="78.5" y="147.6748">id</text><text fill="#D9B8FF" font-family="sans-serif" font-size="14" lengthAdjust="spacing" textLength="48" x="92.5" y="147.6748">: string</text><text fill="#D9B8FF" font-family="sans-serif" font-size="14" font-weight="bold" lengthAdjust="spacing" textLength="33" x="78.5" y="173.9717">kind</text><text fill="#D9B8FF" font-family="sans-serif" font-size="14" lengthAdjust="spacing" textLength="48" x="111.5" y="173.9717">: string</text><text fill="#D9B8FF" font-family="sans-serif" font-size="14" font-weight="bold" lengthAdjust="spacing" textLength="90" x="78.5" y="200.2686">last_access</text><text fill="#D9B8FF" font-family="sans-serif" font-size="14" lengthAdjust="spacing" textLength="66" x="168.5" y="200.2686">: duration</text><text fill="#D9B8FF" font-family="sans-serif" font-size="14" font-weight="bold" lengthAdjust="spacing" textLength="90" x="78.5" y="226.5654">last_update</text><text fill="#D9B8FF" font-family="sans-serif" font-size="14" lengthAdjust="spacing" textLength="66" x="168.5" y="226.5654">: duration</text><text fill="#D9B8FF" font-family="sans-serif" font-size="14" font-weight="bold" lengthAdjust="spacing" textLength="48" x="78.5" y="252.8623">mtime</text><text fill="#D9B8FF" font-family="sans-serif" font-size="14" lengthAdjust="spacing" textLength="70" x="126.5" y="252.8623">: datetime</text><text fill="#D9B8FF" font-family="sans-serif" font-size="14" font-weight="bold" lengthAdjust="spacing" textLength="43" x="78.5" y="279.1592">name</text><text fill="#D9B8FF" font-family="sans-serif" font-size="14" lengthAdjust="spacing" textLength="48" x="121.5" y="279.1592">: string</text><text fill="#D9B8FF" font-family="sans-serif" font-size="14" font-weight="bold" lengthAdjust="spacing" textLength="34" x="78.5" y="305.4561">tags</text><text fill="#D9B8FF" font-family="sans-serif" font-size="14" lengthAdjust="spacing" textLength="171" x="112.5" y="305.4561">: dictionary[string, string]</text></g><!--link gcp_project_billing_info to gcp_deprecation_status--><g id="link_gcp_project_billing_info_gcp_deprecation_status"><path codeLine="52" d="M318.67,839.81 C310.46,856.79 301.39,875.56 292.54,893.87 " fill="none" id="gcp_project_billing_info-to-gcp_deprecation_status" style="stroke:#FFAF37;stroke-width:2.0;"/><polygon fill="#FFAF37" points="290.05,898.02,297.5638,891.6527,292.2229,893.5169,290.3588,888.176,290.05,898.02" style="stroke:#FFAF37;stroke-width:2.0;"/></g><!--reverse link gcp_resource to gcp_project_billing_info--><g id="link_gcp_resource_gcp_project_billing_info"><path codeLine="53" d="M241.6,609.6 C263.73,643.71 288.22,681.44 308.22,712.26 " fill="none" id="gcp_resource-backto-gcp_project_billing_info" style="stroke:#FFAF37;stroke-width:2.0;"/><polygon fill="none" points="235.29,613.74,230.27,593.16,247.03,606.12,235.29,613.74" style="stroke:#FFAF37;stroke-width:2.0;"/></g><!--link gcp_resource to gcp_deprecation_status--><g id="link_gcp_resource_gcp_deprecation_status"><path codeLine="54" d="M172.21,591.94 C166.62,658.03 163.34,756.13 181,839.42 C184.85,857.56 191.07,876.19 198.19,893.85 " fill="none" id="gcp_resource-to-gcp_deprecation_status" style="stroke:#FFAF37;stroke-width:2.0;"/><polygon fill="#FFAF37" points="200.43,898.29,200.7127,888.4452,198.5313,893.6645,193.3119,891.4832,200.43,898.29" style="stroke:#FFAF37;stroke-width:2.0;"/></g><!--reverse link resource to gcp_resource--><g id="link_resource_gcp_resource"><path codeLine="55" d="M181,338.65 C181,373.74 181,408.83 181,438.31 " fill="none" id="resource-backto-gcp_resource" style="stroke:#FFAF37;stroke-width:2.0;"/><polygon fill="none" points="174,339.04,181,319.04,188,339.04,174,339.04" style="stroke:#FFAF37;stroke-width:2.0;"/></g><!--SRC=[XPHRYzim48NVzrS8zYqqa7HfirbAOHiexSjIkdqhnOobiQD6biH8xf9U_dibEraaNx9lzfdFCsUEXFTI8CF6-YDhi2cHt9KxI6s1e67tHEPfPvGXTbrLKDriXiMFHliNWGTea7r2zGkzv30alkqbFsXqZhrEIX-07seohHPzUq-WNIYXzWcrK-3SlVSaozPZOaPiozkg6fB3fjStOhrvYoFCa40w8QlLIgotG-J5KHVtVYOUvMzawpIq1-DnP7CqegCkken4OdAqwBa-w_4B225rpTuasjVU4scaJ7_SWp1FaQv0kNICyqXe_D7YRhGLRcz5jPc4Fy_1F2R7QcuBWPQGWvT65yw3RntxSxLO25JeKImMTw4T1KkTrgC3sPJEH3WJ2Qq2ZasuPvaUHwJalyIA9VCJkIzAgLIe5L9NfZDp5e3pi8elT0Wxwte6K4EfUdkb2QP0X-9Ks-TPKioO8NIc9OwdD8OXnQ-cu-jmnqdQA6Os5PIeYYgy8DcWvT44SuS9CvaHgBl5HKlToAXusOSXGh3nEMXyGfFveONB8WRUd8y1Xn_8O49NQQqu7LnIQIRcZCx6Gzrtb3n-1dJytjTUdPWVOTNPurykty_bd9tIkx_BvNBs5kNiXPuJ_SxIVm00]--></g></svg>

<svg xmlns="http://www.w3.org/2000/svg" width="506" height="1085" preserveAspectRatio="none" style="width:506px;height:1085px"><rect width="237" height="179.273" x="128.5" y="899.42" fill="#3D176E" rx="2.5" ry="2.5" style="stroke:#000d19;stroke-width:.5"/><circle cx="143.5" cy="919.314" r="11" fill="#ADD1B2" style="stroke:#181818;stroke-width:1"/><path d="M146.469 924.955q-.578.297-1.219.438-.64.156-1.344.156-2.5 0-3.828-1.64-1.312-1.657-1.312-4.782t1.312-4.781q1.328-1.657 3.828-1.657.703 0 1.344.157.656.156 1.219.453v2.719q-.625-.579-1.219-.844-.594-.281-1.219-.281-1.344 0-2.031 1.078-.688 1.062-.688 3.156 0 2.094.688 3.172.688 1.062 2.031 1.062.625 0 1.219-.265.594-.282 1.219-.86v2.72Z"/><text x="162.5" y="925.2" fill="#D9B8FF" font-family="Helvetica" font-size="17" textLength="195">gcp_deprecation_status</text><path d="M129.5 939.209h235" style="stroke:#000d19;stroke-width:.5"/><text x="139.5" y="961.204" fill="#D9B8FF" font-family="sans-serif" font-size="14" font-weight="bold" textLength="60">deleted</text><text x="199.5" y="961.204" fill="#D9B8FF" font-family="sans-serif" font-size="14" textLength="48">: string</text><text x="139.5" y="987.501" fill="#D9B8FF" font-family="sans-serif" font-size="14" font-weight="bold" textLength="91">deprecated</text><text x="230.5" y="987.501" fill="#D9B8FF" font-family="sans-serif" font-size="14" textLength="48">: string</text><text x="139.5" y="1013.798" fill="#D9B8FF" font-family="sans-serif" font-size="14" font-weight="bold" textLength="69">obsolete</text><text x="208.5" y="1013.798" fill="#D9B8FF" font-family="sans-serif" font-size="14" textLength="48">: string</text><text x="139.5" y="1040.095" fill="#D9B8FF" font-family="sans-serif" font-size="14" font-weight="bold" textLength="99">replacement</text><text x="238.5" y="1040.095" fill="#D9B8FF" font-family="sans-serif" font-size="14" textLength="48">: string</text><text x="139.5" y="1066.392" fill="#D9B8FF" font-family="sans-serif" font-size="14" font-weight="bold" textLength="40">state</text><text x="179.5" y="1066.392" fill="#D9B8FF" font-family="sans-serif" font-size="14" textLength="48">: string</text><rect width="300" height="126.68" x="199" y="712.74" fill="#3D176E" rx="2.5" ry="2.5" style="stroke:#000d19;stroke-width:.5"/><circle cx="242.35" cy="732.635" r="11" fill="#ADD1B2" style="stroke:#181818;stroke-width:1"/><path d="M245.319 738.275q-.578.297-1.219.438-.64.156-1.344.156-2.5 0-3.828-1.64-1.312-1.657-1.312-4.782t1.312-4.781q1.328-1.657 3.828-1.657.703 0 1.344.157.656.156 1.219.453v2.719q-.625-.578-1.219-.844-.594-.281-1.219-.281-1.344 0-2.031 1.078-.688 1.062-.688 3.156 0 2.094.688 3.172.688 1.062 2.031 1.062.625 0 1.219-.265.594-.282 1.219-.86v2.72Z"/><text x="267.65" y="738.52" fill="#D9B8FF" font-family="Helvetica" font-size="17" textLength="195">gcp_project_billing_info</text><path d="M200 752.529h298" style="stroke:#000d19;stroke-width:.5"/><text x="210" y="774.524" fill="#D9B8FF" font-family="sans-serif" font-size="14" font-weight="bold" textLength="166">billing_account_name</text><text x="376" y="774.524" fill="#D9B8FF" font-family="sans-serif" font-size="14" textLength="48">: string</text><text x="210" y="800.821" fill="#D9B8FF" font-family="sans-serif" font-size="14" font-weight="bold" textLength="116">billing_enabled</text><text x="326" y="800.821" fill="#D9B8FF" font-family="sans-serif" font-size="14" textLength="65">: boolean</text><text x="210" y="827.118" fill="#D9B8FF" font-family="sans-serif" font-size="14" font-weight="bold" textLength="230">project_billing_info_project_id</text><text x="440" y="827.118" fill="#D9B8FF" font-family="sans-serif" font-size="14" textLength="48">: string</text><rect width="348" height="152.977" x="7" y="438.76" fill="#3D176E" rx="2.5" ry="2.5" style="stroke:#000d19;stroke-width:.5"/><circle cx="117.75" cy="458.654" r="11" fill="#ADD1B2" style="stroke:#181818;stroke-width:1"/><path d="M120.719 464.295q-.578.297-1.219.438-.64.156-1.344.156-2.5 0-3.828-1.64-1.312-1.657-1.312-4.782t1.312-4.781q1.328-1.656 3.828-1.656.703 0 1.344.156.656.156 1.219.453v2.719q-.625-.579-1.219-.844-.594-.281-1.219-.281-1.344 0-2.031 1.078-.688 1.062-.688 3.156 0 2.094.688 3.172.688 1.062 2.031 1.062.625 0 1.219-.265.594-.281 1.219-.86v2.72Z"/><text x="143.25" y="464.54" fill="#D9B8FF" font-family="Helvetica" font-size="17" textLength="108">gcp_resource</text><path d="M8 478.549h346" style="stroke:#000d19;stroke-width:.5"/><text x="18" y="500.544" fill="#D9B8FF" font-family="sans-serif" font-size="14" font-weight="bold" textLength="151">deprecation_status</text><text x="169" y="500.544" fill="#D9B8FF" font-family="sans-serif" font-size="14" textLength="175">: gcp_deprecation_status</text><text x="18" y="526.841" fill="#D9B8FF" font-family="sans-serif" font-size="14" font-weight="bold" textLength="89">description</text><text x="107" y="526.841" fill="#D9B8FF" font-family="sans-serif" font-size="14" textLength="48">: string</text><text x="18" y="553.138" fill="#D9B8FF" font-family="sans-serif" font-size="14" font-weight="bold" textLength="128">label_fingerprint</text><text x="146" y="553.138" fill="#D9B8FF" font-family="sans-serif" font-size="14" textLength="48">: string</text><text x="18" y="579.435" fill="#D9B8FF" font-family="sans-serif" font-size="14" font-weight="bold" textLength="27">link</text><text x="45" y="579.435" fill="#D9B8FF" font-family="sans-serif" font-size="14" textLength="48">: string</text><rect width="227" height="310.758" x="67.5" y="7" fill="#3D176E" rx="2.5" ry="2.5" style="stroke:#000d19;stroke-width:.5"/><circle cx="136.25" cy="26.895" r="11" fill="#ADD1B2" style="stroke:#181818;stroke-width:1"/><path d="M139.219 32.535q-.578.297-1.219.438-.64.156-1.344.156-2.5 0-3.828-1.64-1.312-1.657-1.312-4.782t1.312-4.781q1.328-1.656 3.828-1.656.703 0 1.344.156.656.156 1.219.453v2.719q-.625-.578-1.219-.844-.594-.281-1.219-.281-1.344 0-2.031 1.078-.688 1.062-.688 3.156 0 2.094.688 3.172.688 1.062 2.031 1.062.625 0 1.219-.265.594-.281 1.219-.86v2.72Z"/><text x="161.75" y="32.78" fill="#D9B8FF" font-family="Helvetica" font-size="17" textLength="71">resource</text><path d="M68.5 46.789h225" style="stroke:#000d19;stroke-width:.5"/><text x="78.5" y="68.784" fill="#D9B8FF" font-family="sans-serif" font-size="14" font-weight="bold" textLength="29">age</text><text x="107.5" y="68.784" fill="#D9B8FF" font-family="sans-serif" font-size="14" textLength="66">: duration</text><text x="78.5" y="95.081" fill="#D9B8FF" font-family="sans-serif" font-size="14" font-weight="bold" textLength="43">atime</text><text x="121.5" y="95.081" fill="#D9B8FF" font-family="sans-serif" font-size="14" textLength="70">: datetime</text><text x="78.5" y="121.378" fill="#D9B8FF" font-family="sans-serif" font-size="14" font-weight="bold" textLength="43">ctime</text><text x="121.5" y="121.378" fill="#D9B8FF" font-family="sans-serif" font-size="14" textLength="70">: datetime</text><text x="78.5" y="147.675" fill="#D9B8FF" font-family="sans-serif" font-size="14" font-weight="bold" textLength="14">id</text><text x="92.5" y="147.675" fill="#D9B8FF" font-family="sans-serif" font-size="14" textLength="48">: string</text><text x="78.5" y="173.972" fill="#D9B8FF" font-family="sans-serif" font-size="14" font-weight="bold" textLength="33">kind</text><text x="111.5" y="173.972" fill="#D9B8FF" font-family="sans-serif" font-size="14" textLength="48">: string</text><text x="78.5" y="200.269" fill="#D9B8FF" font-family="sans-serif" font-size="14" font-weight="bold" textLength="90">last_access</text><text x="168.5" y="200.269" fill="#D9B8FF" font-family="sans-serif" font-size="14" textLength="66">: duration</text><text x="78.5" y="226.565" fill="#D9B8FF" font-family="sans-serif" font-size="14" font-weight="bold" textLength="90">last_update</text><text x="168.5" y="226.565" fill="#D9B8FF" font-family="sans-serif" font-size="14" textLength="66">: duration</text><text x="78.5" y="252.862" fill="#D9B8FF" font-family="sans-serif" font-size="14" font-weight="bold" textLength="48">mtime</text><text x="126.5" y="252.862" fill="#D9B8FF" font-family="sans-serif" font-size="14" textLength="70">: datetime</text><text x="78.5" y="279.159" fill="#D9B8FF" font-family="sans-serif" font-size="14" font-weight="bold" textLength="43">name</text><text x="121.5" y="279.159" fill="#D9B8FF" font-family="sans-serif" font-size="14" textLength="48">: string</text><text x="78.5" y="305.456" fill="#D9B8FF" font-family="sans-serif" font-size="14" font-weight="bold" textLength="34">tags</text><text x="112.5" y="305.456" fill="#D9B8FF" font-family="sans-serif" font-size="14" textLength="171">: dictionary[string, string]</text><path fill="none" d="M318.67 839.81c-8.21 16.98-17.28 35.75-26.13 54.06" style="stroke:#ffaf37;stroke-width:2"/><path fill="#FFAF37" d="m290.05 898.02 7.514-6.367-5.341 1.864-1.864-5.341-.309 9.844z" style="stroke:#ffaf37;stroke-width:2"/><g fill="none"><path d="M241.6 609.6c22.13 34.11 46.62 71.84 66.62 102.66" style="stroke:#ffaf37;stroke-width:2"/><path d="m235.29 613.74-5.02-20.58 16.76 12.96-11.74 7.62z" style="stroke:#ffaf37;stroke-width:2"/></g><path fill="none" d="M172.21 591.94c-5.59 66.09-8.87 164.19 8.79 247.48 3.85 18.14 10.07 36.77 17.19 54.43" style="stroke:#ffaf37;stroke-width:2"/><path fill="#FFAF37" d="m200.43 898.29.283-9.845-2.182 5.22-5.22-2.182 7.119 6.807z" style="stroke:#ffaf37;stroke-width:2"/><path fill="none" d="M181 338.65v99.66m-7-99.27 7-20 7 20h-14z" style="stroke:#ffaf37;stroke-width:2"/></svg>
